icons/circle/48/chocolate-doom-setup.svg

<svg xmlns="http://www.w3.org/2000/svg" viewBox="0 0 48 48">
 <defs>
  <linearGradient id="linearGradient3777" x1="1" x2="47" gradientUnits="userSpaceOnUse">
   <stop style="stop-color:#bababa;stop-opacity:1"/>
   <stop offset="1" style="stop-color:#c4c4c4;stop-opacity:1"/>
  </linearGradient>
 </defs>
 <g>
  <path d="m 36.31 5 c 5.859 4.062 9.688 10.831 9.688 18.5 c 0 12.426 -10.07 22.5 -22.5 22.5 c -7.669 0 -14.438 -3.828 -18.5 -9.688 c 1.037 1.822 2.306 3.499 3.781 4.969 c 4.085 3.712 9.514 5.969 15.469 5.969 c 12.703 0 23 -10.298 23 -23 c 0 -5.954 -2.256 -11.384 -5.969 -15.469 c -1.469 -1.475 -3.147 -2.744 -4.969 -3.781 z m 4.969 3.781 c 3.854 4.113 6.219 9.637 6.219 15.719 c 0 12.703 -10.297 23 -23 23 c -6.081 0 -11.606 -2.364 -15.719 -6.219 c 4.16 4.144 9.883 6.719 16.219 6.719 c 12.703 0 23 -10.298 23 -23 c 0 -6.335 -2.575 -12.06 -6.719 -16.219 z" style="opacity:0.05"/>
  <path d="m 41.28 8.781 c 3.712 4.085 5.969 9.514 5.969 15.469 c 0 12.703 -10.297 23 -23 23 c -5.954 0 -11.384 -2.256 -15.469 -5.969 c 4.113 3.854 9.637 6.219 15.719 6.219 c 12.703 0 23 -10.298 23 -23 c 0 -6.081 -2.364 -11.606 -6.219 -15.719 z" style="opacity:0.1"/>
  <path d="m 31.25 2.375 c 8.615 3.154 14.75 11.417 14.75 21.13 c 0 12.426 -10.07 22.5 -22.5 22.5 c -9.708 0 -17.971 -6.135 -21.12 -14.75 a 23 23 0 0 0 44.875 -7 a 23 23 0 0 0 -16 -21.875 z" style="opacity:0.2"/>
 </g>
 <g transform="matrix(0,-1,1,0,0,48)" style="fill:url(#linearGradient3777);fill-opacity:1">
  <path d="M 24,1 C 36.703,1 47,11.297 47,24 47,36.703 36.703,47 24,47 11.297,47 1,36.703 1,24 1,11.297 11.297,1 24,1 z"/>
 </g>
 <path d="m 25 13 c -6.627 0 -12 5.373 -12 12 c 0 3.17 1.242 6.04 3.25 8.188 l 3.188 13.344 c 1.479 0.298 2.996 0.469 4.563 0.469 c 2.685 0 5.261 -0.467 7.656 -1.313 l 2.438 -12.875 c 1.806 -2.1 2.906 -4.825 2.906 -7.813 c 0 -6.627 -5.373 -12 -12 -12 z" style="fill:#000;opacity:0.1;fill-opacity:1;stroke:none"/>
 <path d="m 14 27 l 4.625 19.375 c 1.725 0.413 3.523 0.625 5.375 0.625 c 2.213 0 4.35 -0.323 6.375 -0.906 l 3.625 -19.09 l -20 0 z" style="fill:#efbf4f;fill-opacity:1;stroke:none"/>
 <g>
  <path d="m 40.03 7.531 c 3.712 4.084 5.969 9.514 5.969 15.469 0 12.703 -10.297 23 -23 23 c -5.954 0 -11.384 -2.256 -15.469 -5.969 4.178 4.291 10.01 6.969 16.469 6.969 c 12.703 0 23 -10.298 23 -23 0 -6.462 -2.677 -12.291 -6.969 -16.469 z" style="opacity:0.1"/>
 </g>
 <path d="m 27.15 22.881 a 8.568 7.576 0 1 1 -17.14 0 8.568 7.576 0 1 1 17.14 0 z" transform="matrix(1.4005935,0,0,1.5838926,-2.0296728,-12.24161)" style="fill:#95603a;opacity:1;fill-opacity:1;stroke:none;fill-rule:nonzero"/>
</svg>

<svg xmlns="http://www.w3.org/2000/svg" viewBox="0 0 48 48">
  <defs>
    <linearGradient id="a" x1="1" x2="47" gradientUnits="userSpaceOnUse">
      <stop stop-color="#bababa"/>
      <stop offset="1" stop-color="#c4c4c4"/>
    </linearGradient>
  </defs>
  <path d="M36.31 5c5.859 4.062 9.688 10.831 9.688 18.5 0 12.426-10.07 22.5-22.5 22.5-7.669 0-14.438-3.828-18.5-9.688a23.24 23.24 0 0 0 3.781 4.969 22.923 22.923 0 0 0 15.469 5.969c12.703 0 23-10.298 23-23a22.92 22.92 0 0 0-5.969-15.469A23.216 23.216 0 0 0 36.31 5zm4.969 3.781A22.911 22.911 0 0 1 47.498 24.5c0 12.703-10.297 23-23 23a22.909 22.909 0 0 1-15.719-6.219C12.939 45.425 18.662 48 24.998 48c12.703 0 23-10.298 23-23 0-6.335-2.575-12.06-6.719-16.219z" opacity=".05"/>
  <path d="M41.28 8.781a22.923 22.923 0 0 1 5.969 15.469c0 12.703-10.297 23-23 23A22.92 22.92 0 0 1 8.78 41.281 22.911 22.911 0 0 0 24.499 47.5c12.703 0 23-10.298 23-23A22.909 22.909 0 0 0 41.28 8.781z" opacity=".1"/>
  <path d="M31.25 2.375C39.865 5.529 46 13.792 46 23.505c0 12.426-10.07 22.5-22.5 22.5-9.708 0-17.971-6.135-21.12-14.75a23 23 0 0 0 44.875-7 23 23 0 0 0-16-21.875z" opacity=".2"/>
  <path d="M24 1c12.703 0 23 10.297 23 23S36.703 47 24 47 1 36.703 1 24 11.297 1 24 1z" transform="rotate(-90 24 24)" fill="url(#a)"/>
  <path d="M25 13c-6.627 0-12 5.373-12 12 0 3.17 1.242 6.04 3.25 8.188l3.188 13.344c1.479.298 2.996.469 4.563.469 2.685 0 5.261-.467 7.656-1.313l2.438-12.875A11.94 11.94 0 0 0 37.001 25c0-6.627-5.373-12-12-12z" opacity=".1"/>
  <path d="M14 27l4.625 19.375C20.35 46.788 22.148 47 24 47c2.213 0 4.35-.323 6.375-.906L34 27.004H14z" fill="#efbf4f"/>
  <g>
    <path d="M40.03 7.531A22.922 22.922 0 0 1 45.999 23c0 12.703-10.297 23-23 23A22.92 22.92 0 0 1 7.53 40.031C11.708 44.322 17.54 47 23.999 47c12.703 0 23-10.298 23-23 0-6.462-2.677-12.291-6.969-16.469z" opacity=".1"/>
  </g>
  <path d="M35.996 24a12.003 12.002 0 1 1-24.006 0 12.003 12.002 0 1 1 24.006 0z" fill="#95603a"/>
</svg>
